site/static/images/clients/customer_riseup.svg

<svg width="256" height="256" viewBox="0 0 256 256" fill="none" xmlns="http://www.w3.org/2000/svg">
<circle cx="128" cy="128" r="128" fill="#5E9EE3"/>
<path fill-rule="evenodd" clip-rule="evenodd" d="M42.6111 115.951L40.418 92.7228L40 75.3788L47.8712 74.5387L48.7073 81.2591L54.1419 75.7988L65.4292 74.1187L70.0278 75.7988L69.1917 84.8443L63.339 83.5842L58.618 84.2503L54.3658 88.9426L51.2663 93.0198L52.398 108.561L52.9385 117.258L42.6111 115.951V115.951Z" fill="black"/>
<path fill-rule="evenodd" clip-rule="evenodd" d="M73.9441 91.1129L71.333 117.258H83.083V100.02V91.4002L73.9441 91.1129Z" fill="black"/>
<path fill-rule="evenodd" clip-rule="evenodd" d="M115.722 87.1914L119.226 80.0862L112.781 77.5442L105.906 75.426L95.1638 79.6625L89.578 88.5591L91.2967 97.4558L102.039 100.845L111.492 105.081L110.832 109.866L106.032 112.305L96.0232 111.86L91.2967 107.623L87 114.402L92.5858 119.486L109.773 121.18L118.796 119.486L120.085 110.589L120.944 99.1504L110.203 93.6429L102.468 91.9483L102.039 86.8645L107.195 83.899L115.722 87.1914Z" fill="black"/>
<path fill-rule="evenodd" clip-rule="evenodd" d="M131.389 96.3421L143.259 95.7654L156.284 95.3425L155.864 84.3461L149.141 78.8479L133.595 76.7332L124.351 81.8085L122.25 93.2278V105.916L128.973 114.375L144.94 119.873H155.024L158.806 115.22L154.184 108.453L149.982 111.414L137.797 109.722L133.175 106.762L130.654 101.264L131.389 96.3421V96.3421Z" fill="black"/>
<path fill-rule="evenodd" clip-rule="evenodd" d="M161.417 81.962V97.4775L163.54 109.309L169.486 117.337L174.157 119.873H185.624L194.118 114.379L196.242 102.126L196.666 86.0687V78.4628L187.528 78.0403V88.1814L187.323 102.126L184.775 111.844L179.679 113.112L173.733 110.154L171.185 103.393L170.387 89.5004L170.687 80.6268L161.417 81.962V81.962Z" fill="black"/>
<path fill-rule="evenodd" clip-rule="evenodd" d="M201.889 78.0405L201.592 98.0194L200.583 116.202L201.398 118.566L209.535 117.808L210.299 95.893L222.861 94.7579L226.817 90.6666L228 81.7172L224.166 75.7959L209.953 74.1187L201.889 78.0405V78.0405Z" fill="black"/>
<path fill-rule="evenodd" clip-rule="evenodd" d="M82.2264 190.156L80.9209 171.4V152.246H90.0598V159.891L96.8333 153.07L108.875 150.939L117.046 157.333L116.616 173.105L117.476 190.156L107.585 189.304L108.015 172.679L105.865 163.301L100.704 164.58L94.683 166.285L90.0598 172.253V182.483V190.156H82.2264V190.156Z" fill="black"/>
<path fill-rule="evenodd" clip-rule="evenodd" d="M135.754 171.855L149.872 170.763L157.949 169.469L156.673 157.386L139.671 148.324L129.469 154.366L124.369 164.291L121.393 178.099L127.769 190.613L137.971 192.771L149.872 192.34L157.098 187.161L151.148 179.394L149.022 181.983L137.971 184.572L131.17 177.668L132.02 173.784L135.754 171.855V171.855Z" fill="black"/>
<path fill-rule="evenodd" clip-rule="evenodd" d="M161.865 149.631L169.586 149.501L169.343 140.481L177.651 141.759L178.532 149.678L187.976 149.376V158.178L177.944 158.001L177.532 165.193V174.14V180.957L179.778 184.688L186.303 184.129L187.519 191.11L189.282 198L176.354 192.753L169.758 186.789L168.096 179.494L168.046 171.158L168.755 157.751L161.865 157.523L161.937 149.631H161.865Z" fill="black"/>
<path d="M84.3891 88.4985L76.3604 87.8599L75.5401 79.2372C75.5401 79.2372 71.4607 71.1301 68.9474 69.8853C66.4334 68.6386 63.5002 66.1465 63.5002 66.1465C63.5002 66.1465 66.852 63.2386 69.7852 65.3156C72.7183 67.3932 72.7183 67.8084 72.7183 67.8084C72.7183 67.8084 76.0695 69.0551 76.9085 62.8228C77.7469 56.5919 80.1916 47.4971 80.1916 47.4971C80.1916 47.4971 81.8672 45.0043 83.1247 46.6661C84.3817 48.328 80.6782 62.4083 80.6782 62.4083L87.9985 46.8112C87.9985 46.8112 90.0939 44.7342 90.5131 47.227C90.931 49.7198 85.2882 62.8222 85.2882 62.8222L92.5048 52.0131C92.5048 52.0131 95.438 50.3519 95.438 52.844C95.438 55.3361 88.6399 64.0689 88.6399 64.0689L97.5418 58.7647C97.5418 58.7647 100.474 57.9338 100.056 60.4259C99.6372 62.918 91.3003 65.0086 89.0591 70.2992C86.6495 75.591 84.3891 88.4985 84.3891 88.4985V88.4985Z" fill="black"/>
<path fill-rule="evenodd" clip-rule="evenodd" d="M65.2548 181.006L63.9492 190.156L73.0881 189.325L71.4265 181.006H65.2548Z" fill="black"/>
</svg>

<svg width="256" height="256" fill="none" xmlns="http://www.w3.org/2000/svg"><circle cx="128" cy="128" r="128" fill="#5E9EE3"/><path fill-rule="evenodd" clip-rule="evenodd" d="m42.6 116-2.2-23.3-.4-17.3 7.9-.9.8 6.8 5.4-5.5 11.3-1.7 4.6 1.7-.8 9-5.9-1.2-4.7.7-4.2 4.6-3.1 4.1 1.1 15.6.5 8.7-10.3-1.3ZM74 91.1l-2.7 26.2h11.8V91.4l-9.2-.3ZM115.7 87.2l3.5-7.1-6.4-2.6-6.9-2-10.7 4.2-5.6 8.9 1.7 8.9 10.7 3.3 9.5 4.3-.7 4.8-4.8 2.4-10-.4-4.7-4.3-4.3 6.8 5.6 5 17.2 1.8 9-1.7 1.3-9 .8-11.3-10.7-5.6-7.7-1.7-.5-5 5.2-3 8.5 3.3ZM131.4 96.3l11.9-.5 13-.5-.4-11-6.8-5.5-15.5-2-9.2 5-2.2 11.4V106l6.8 8.5 16 5.5h10l3.8-4.7-4.6-6.7-4.2 3-12.2-1.8-4.6-3-2.5-5.4.7-5ZM161.4 82v15.5l2.1 11.8 6 8 4.7 2.6h11.4l8.5-5.5 2.1-12.3.5-16v-7.6l-9.2-.5v10.2l-.2 14-2.5 9.6-5.1 1.3-6-3-2.5-6.7-.8-13.9.3-8.9-9.3 1.4ZM201.9 78l-.3 20-1 18.2.8 2.4 8.1-.8.8-22 12.6-1 4-4.1 1.1-9-3.8-5.9-14.2-1.7-8.1 4ZM82.2 190.2 81 171.4v-19.2h9.2v7.7l6.7-6.8 12-2.2 8.2 6.4-.4 15.8.9 17-10-.8.5-16.6-2.1-9.4-5.2 1.3-6 1.7-4.6 6v17.9h-7.9ZM135.8 171.9l14-1.1 8.1-1.3-1.2-12.1-17-9-10.2 6-5.1 9.9-3 13.8 6.4 12.5 10.2 2.2 11.9-.5 7.2-5.1-6-7.8-2 2.6-11.1 2.6-6.8-7 .8-3.8 3.8-2ZM161.9 149.6l7.7-.1-.3-9 8.4 1.3.8 7.9 9.5-.3v8.8l-10-.2-.5 7.2V181l2.3 3.7 6.5-.6 1.2 7 1.8 6.9-13-5.2-6.5-6-1.7-7.3v-8.3l.7-13.4-7-.3.1-7.9Z" fill="#000"/><path d="m84.4 88.5-8-.6-.9-8.7s-4-8-6.6-9.3c-2.5-1.3-5.4-3.8-5.4-3.8s3.4-2.9 6.3-.8c3 2 3 2.5 3 2.5s3.3 1.3 4.1-5c.8-6.2 3.3-15.3 3.3-15.3s1.7-2.5 3-.8c1.2 1.6-2.5 15.7-2.5 15.7L88 46.8s2-2 2.5.4c.4 2.5-5.2 15.6-5.2 15.6L92.5 52s3-1.6 3 .8a44 44 0 0 1-6.9 11.3l9-5.3s2.9-.9 2.5 1.6c-.5 2.5-8.8 4.6-11 9.9-2.5 5.3-4.7 18.2-4.7 18.2Z" fill="#000"/><path fill-rule="evenodd" clip-rule="evenodd" d="m65.3 181-1.4 9.2 9.2-.9-1.7-8.3h-6.1Z" fill="#000"/></svg>
